icons/anim.svg

<svg width="16" height="16" viewBox="0 0 16 16" fill="none" xmlns="http://www.w3.org/2000/svg">
<path fill-rule="evenodd" clip-rule="evenodd" d="M9.37575 4.81364C9.37575 5.5906 8.7459 6.22046 7.96893 6.22046C7.78261 6.22046 7.60474 6.18423 7.442 6.11844C7.38161 6.07491 7.31405 6.04071 7.24142 6.01798C6.83425 5.77149 6.56212 5.32434 6.56212 4.81364C6.56212 4.03667 7.19197 3.40682 7.96893 3.40682C8.7459 3.40682 9.37575 4.03667 9.37575 4.81364ZM5.40734 8.42186C5.75505 8.34625 6.13359 8.32286 6.51393 8.33279C6.53034 8.43286 6.54689 8.53209 6.56314 8.62952L6.56314 8.62952L6.57169 8.68079C6.69329 9.4104 6.79646 10.0438 6.79659 10.4402V10.4409C6.79658 11.2863 6.58207 11.8847 6.24511 12.2156C5.942 12.5133 5.39703 12.7307 4.3766 12.4936C3.99819 12.4057 3.62017 12.6412 3.53226 13.0196C3.44434 13.398 3.67983 13.776 4.05824 13.8639C5.38251 14.1716 6.47882 13.9579 7.23083 13.2194C7.77204 12.6879 8.04988 11.9647 8.15394 11.1995C8.49845 11.2042 8.956 11.2993 9.32907 11.5557C9.71405 11.8202 10.0792 12.3012 10.0792 13.2546C10.0792 13.643 10.3941 13.958 10.7826 13.958C11.1711 13.958 11.486 13.643 11.486 13.2546C11.486 11.8633 10.9132 10.9373 10.1258 10.3963C9.4748 9.94885 8.7292 9.79888 8.16065 9.79285C8.11909 9.42067 8.05299 9.01228 7.98866 8.6253C8.3762 8.89844 8.86052 9.09977 9.3566 9.19782C10.2177 9.36801 11.2595 9.25909 12.1567 8.54981C12.4614 8.30888 12.5132 7.86652 12.2723 7.56177C12.0313 7.25702 11.589 7.20528 11.2842 7.44621C10.7746 7.84911 10.1751 7.92556 9.62937 7.8177C9.28712 7.75006 9.01407 7.62082 8.82674 7.49412C9.96117 7.13138 10.7826 6.06843 10.7826 4.81364C10.7826 3.25971 9.52286 2 7.96893 2C6.41501 2 5.1553 3.25971 5.1553 4.81364C5.1553 5.65621 5.52565 6.41227 6.11245 6.92793C5.77722 6.93926 5.43807 6.97548 5.10842 7.04716C4.02912 7.28185 2.98255 7.9223 2.60104 9.3175C2.49857 9.69223 2.71928 10.0791 3.09401 10.1815C3.46873 10.284 3.85557 10.0633 3.95804 9.68857C4.1627 8.9401 4.67926 8.58017 5.40734 8.42186Z" fill="#86B44B"/>
</svg>

<svg xmlns="http://www.w3.org/2000/svg" width="16" height="16" fill="none"><path fill="#86B44B" fill-rule="evenodd" d="M9.376 4.814a1.407 1.407 0 0 1-1.934 1.304.701.701 0 0 0-.2-.1 1.406 1.406 0 1 1 2.134-1.204ZM5.407 8.422a4.69 4.69 0 0 1 1.107-.09l.05.298.008.05c.121.73.224 1.364.225 1.76 0 .846-.215 1.445-.552 1.776-.303.297-.848.515-1.868.278a.703.703 0 0 0-.319 1.37c1.325.308 2.42.094 3.173-.645.541-.531.819-1.254.923-2.02.344.005.802.1 1.175.357.385.264.75.745.75 1.699a.703.703 0 0 0 1.407 0c0-1.392-.573-2.318-1.36-2.859-.651-.447-1.397-.597-1.965-.603-.042-.372-.108-.78-.172-1.168a3.64 3.64 0 0 0 1.368.573c.86.17 1.902.061 2.8-.648a.703.703 0 0 0-.873-1.104c-.51.403-1.109.48-1.655.372a2.212 2.212 0 0 1-.802-.324A2.815 2.815 0 0 0 7.969 2a2.814 2.814 0 0 0-1.857 4.928 5.636 5.636 0 0 0-1.004.12c-1.079.234-2.125.874-2.507 2.27a.703.703 0 1 0 1.357.37c.205-.748.721-1.108 1.45-1.266Z" clip-rule="evenodd"/></svg>
